fs/table_stack_right_16_regular.svg

<svg viewBox="0 0 16 16" fill="none" xmlns="http://www.w3.org/2000/svg" height="1em" width="1em">
  <path d="M14 2.5C14 2.22386 13.7761 2 13.5 2C13.2239 2 13 2.22386 13 2.5V13.5C13 13.7761 13.2239 14 13.5 14C13.7761 14 14 13.7761 14 13.5V2.5ZM2 11.5C2 12.8807 3.11929 14 4.5 14H9.5C9.77614 14 10 13.7761 10 13.5V2.5C10 2.22386 9.77614 2 9.5 2L4.5 2C3.11929 2 2 3.11929 2 4.5L2 11.5ZM9 3V5L6 5V3L9 3ZM9 6L9 10L6 10L6 6H9ZM9 11V13H6V11H9ZM3 10L3 6L5 6L5 10L3 10ZM3 5L3 4.5C3 3.67157 3.67157 3 4.5 3H5L5 5H3ZM3 11H5V13H4.5C3.67157 13 3 12.3284 3 11.5V11Z" fill="#212121"/>
</svg>

<svg viewBox="0 0 16 16" fill="none" xmlns="http://www.w3.org/2000/svg" height="1em" width="1em">
  <path d="M14 2.5a.5.5 0 0 0-1 0v11a.5.5 0 0 0 1 0v-11Zm-12 9A2.5 2.5 0 0 0 4.5 14h5a.5.5 0 0 0 .5-.5v-11a.5.5 0 0 0-.5-.5h-5A2.5 2.5 0 0 0 2 4.5v7ZM9 3v2H6V3h3Zm0 3v4H6V6h3Zm0 5v2H6v-2h3Zm-6-1V6h2v4H3Zm0-5v-.5A1.5 1.5 0 0 1 4.5 3H5v2H3Zm0 6h2v2h-.5A1.5 1.5 0 0 1 3 11.5V11Z" fill="#212121"/>
</svg>
